public/logos/SQ.svg

<?xml version="1.0" encoding="UTF-8"?>
<svg xmlns="http://www.w3.org/2000/svg" xmlns:xlink="http://www.w3.org/1999/xlink" width="160.85pt" height="59pt" viewBox="0 0 160.85 59" version="1.1">
<defs>
<clipPath id="clip1">
  <path d="M 118 0 L 160.851562 0 L 160.851562 59 L 118 59 Z M 118 0 "/>
</clipPath>
</defs>
<g id="surface1">
<path style=" stroke:none;fill-rule:nonzero;fill:rgb(97.570801%,66.122437%,11.219788%);fill-opacity:1;" d="M 0 55.550781 L 111.351562 55.550781 L 109.144531 59 L 0 59 L 0 55.550781 "/>
<path style=" stroke:none;fill-rule:nonzero;fill:rgb(97.570801%,66.122437%,11.219788%);fill-opacity:1;" d="M 131.636719 53.992188 L 127.539062 53.992188 L 135.804688 40.945312 C 135.804688 40.945312 137.042969 38.242188 135.425781 35.386719 L 123.902344 16.300781 C 123.902344 16.300781 122.894531 14.53125 123.902344 12.835938 L 127.3125 7.730469 L 140.835938 29.824219 C 140.835938 29.824219 144.320312 34.453125 140.527344 40.183594 L 131.636719 53.992188 "/>
<g clip-path="url(#clip1)" clip-rule="nonzero">
<path style=" stroke:none;fill-rule:nonzero;fill:rgb(97.570801%,66.122437%,11.219788%);fill-opacity:1;" d="M 141.519531 49.992188 L 146.546875 42.335938 C 146.546875 42.335938 148.015625 39.175781 151.804688 39.175781 L 157.136719 39.175781 L 160.851562 45.039062 C 160.851562 45.039062 157.914062 44.734375 156.601562 46.832031 L 151.117188 55.09375 C 151.117188 55.09375 149.328125 58.960938 144.546875 58.960938 L 118.722656 58.960938 L 128.550781 43.878906 C 128.550781 43.878906 129.941406 42.105469 127.996094 39.175781 L 119.257812 25.121094 C 119.257812 25.121094 117.105469 23.042969 119.332031 19.484375 L 121.886719 15.617188 L 134.035156 35.308594 C 134.035156 35.308594 136.1875 38.011719 134.035156 41.25 L 124.910156 55.476562 L 144.148438 55.476562 C 144.148438 55.476562 146.320312 55.875 148.183594 53.097656 L 152.964844 45.746094 C 152.964844 45.746094 154.050781 43.269531 156.449219 42.261719 L 152.585938 42.261719 C 152.585938 42.261719 150.566406 42.335938 149.023438 44.734375 L 144.777344 51.304688 C 144.777344 51.304688 143.234375 54.085938 139.824219 54.085938 L 133.101562 54.085938 L 141.214844 41.496094 C 141.214844 41.496094 145.632812 35.691406 142.527344 30.355469 L 129.082031 8.113281 C 129.082031 8.113281 128.074219 6.191406 129.234375 4.398438 L 132.167969 0 L 147.480469 24.664062 C 147.480469 24.664062 149.726562 28.355469 149.726562 31.214844 C 149.726562 34.070312 147.9375 37.308594 146.945312 38.945312 L 140.203125 49.457031 C 140.203125 49.457031 139.441406 50.46875 139.976562 50.847656 C 140.527344 51.230469 141.0625 50.542969 141.519531 49.992188 "/>
</g>
<path style=" stroke:none;fill-rule:nonzero;fill:rgb(15.664673%,27.082825%,54.109192%);fill-opacity:1;" d="M 56.066406 39.289062 L 58.449219 39.289062 L 58.449219 48.714844 L 64.257812 48.714844 L 64.257812 50.734375 L 56.066406 50.734375 L 56.066406 39.289062 "/>
<path style=" stroke:none;fill-rule:nonzero;fill:rgb(15.664673%,27.082825%,54.109192%);fill-opacity:1;" d="M 66.085938 50.734375 L 68.445312 50.734375 L 68.445312 39.289062 L 66.085938 39.289062 L 66.085938 50.734375 "/>
<path style=" stroke:none;fill-rule:nonzero;fill:rgb(15.664673%,27.082825%,54.109192%);fill-opacity:1;" d="M 37.097656 50.734375 L 39.441406 50.734375 L 39.441406 39.289062 L 37.097656 39.289062 L 37.097656 50.734375 "/>
<path style=" stroke:none;fill-rule:nonzero;fill:rgb(15.664673%,27.082825%,54.109192%);fill-opacity:1;" d="M 85.339844 39.289062 L 94.308594 39.289062 L 94.308594 41.175781 L 87.71875 41.175781 L 87.71875 43.972656 L 93.316406 43.972656 L 93.316406 46.050781 L 87.71875 46.050781 L 87.71875 48.832031 L 94.308594 48.832031 L 94.308594 50.734375 L 85.339844 50.734375 L 85.339844 39.289062 "/>
<path style=" stroke:none;fill-rule:nonzero;fill:rgb(15.664673%,27.082825%,54.109192%);fill-opacity:1;" d="M 97.964844 23.902344 L 106.933594 23.902344 L 106.933594 25.785156 L 100.347656 25.785156 L 100.347656 28.566406 L 105.964844 28.566406 L 105.964844 30.644531 L 100.347656 30.644531 L 100.347656 33.421875 L 106.933594 33.421875 L 106.933594 35.308594 L 97.964844 35.308594 L 97.964844 23.902344 "/>
<path style=" stroke:none;fill-rule:nonzero;fill:rgb(15.664673%,27.082825%,54.109192%);fill-opacity:1;" d="M 43.078125 50.734375 L 43.078125 39.289062 L 49.878906 39.289062 C 49.878906 39.289062 53.152344 39.347656 53.152344 42.621094 C 53.152344 42.621094 53.457031 45.34375 50.675781 46.449219 L 54.125 50.734375 L 51.191406 50.734375 L 46.429688 44.792969 L 48.90625 44.792969 C 48.90625 44.792969 50.675781 44.753906 50.675781 42.964844 C 50.675781 41.269531 49.25 41.136719 48.8125 41.136719 L 45.460938 41.136719 L 45.460938 50.734375 L 43.078125 50.734375 "/>
<path style=" stroke:none;fill-rule:nonzero;fill:rgb(15.664673%,27.082825%,54.109192%);fill-opacity:1;" d="M 84.917969 35.308594 L 84.917969 23.902344 L 91.71875 23.902344 C 91.71875 23.902344 94.992188 23.957031 94.992188 27.234375 C 94.992188 27.234375 95.28125 29.9375 92.519531 31.042969 L 95.964844 35.308594 L 93.03125 35.308594 L 88.269531 29.40625 L 90.746094 29.40625 C 90.746094 29.40625 92.519531 29.367188 92.519531 27.578125 C 92.519531 25.863281 91.089844 25.746094 90.652344 25.746094 L 87.300781 25.746094 L 87.300781 35.308594 L 84.917969 35.308594 "/>
<path style=" stroke:none;fill-rule:nonzero;fill:rgb(15.664673%,27.082825%,54.109192%);fill-opacity:1;" d="M 37.269531 33.328125 L 40.488281 33.328125 L 40.488281 28.089844 L 42.773438 28.089844 L 42.773438 35.308594 L 36.773438 35.308594 C 35.878906 35.308594 31.554688 34.300781 31.519531 29.746094 C 31.480469 25.234375 35.421875 23.902344 36.945312 23.902344 L 42.832031 23.902344 L 42.832031 25.917969 L 37.519531 25.917969 C 37.519531 25.917969 33.957031 25.917969 33.957031 29.671875 C 33.957031 32.585938 36.90625 33.328125 37.269531 33.328125 "/>
<path style=" stroke:none;fill-rule:nonzero;fill:rgb(15.664673%,27.082825%,54.109192%);fill-opacity:1;" d="M 71.550781 39.289062 L 73.949219 39.289062 L 73.949219 41.058594 L 75.453125 39.289062 L 78.292969 39.289062 C 78.292969 39.289062 82.175781 39.078125 82.175781 43.230469 L 82.175781 50.734375 L 79.757812 50.734375 L 79.757812 42.867188 C 79.757812 42.867188 79.683594 41.308594 78.042969 41.308594 L 73.949219 41.308594 L 73.949219 50.734375 L 71.550781 50.734375 L 71.550781 39.289062 "/>
<path style=" stroke:none;fill-rule:nonzero;fill:rgb(15.664673%,27.082825%,54.109192%);fill-opacity:1;" d="M 18.722656 23.902344 L 21.101562 23.902344 L 21.101562 25.652344 L 22.605469 23.902344 L 25.445312 23.902344 C 25.445312 23.902344 29.347656 23.691406 29.347656 27.84375 L 29.347656 35.308594 L 26.929688 35.308594 L 26.929688 27.480469 C 26.929688 27.480469 26.832031 25.917969 25.195312 25.917969 L 21.101562 25.917969 L 21.101562 35.308594 L 18.722656 35.308594 L 18.722656 23.902344 "/>
<path style=" stroke:none;fill-rule:nonzero;fill:rgb(15.664673%,27.082825%,54.109192%);fill-opacity:1;" d="M 13.085938 35.308594 L 15.425781 35.308594 L 15.425781 23.902344 L 13.085938 23.902344 L 13.085938 35.308594 "/>
<path style=" stroke:none;fill-rule:nonzero;fill:rgb(15.664673%,27.082825%,54.109192%);fill-opacity:1;" d="M 96.917969 50.714844 L 96.917969 48.773438 L 103.546875 48.773438 C 103.546875 48.773438 104.859375 49.019531 104.859375 47.421875 C 104.859375 45.820312 103.867188 45.992188 103.507812 45.992188 L 99.679688 45.992188 C 99.679688 45.992188 96.726562 46.203125 96.726562 42.734375 C 96.726562 39.289062 99.640625 39.289062 99.640625 39.289062 L 106.914062 39.289062 L 106.914062 41.308594 L 100.535156 41.308594 C 100.535156 41.308594 99.144531 41.308594 99.144531 42.621094 C 99.144531 43.9375 100.078125 44.183594 100.953125 44.183594 L 104.363281 44.183594 C 104.363281 44.183594 107.238281 43.878906 107.238281 47.304688 C 107.238281 50.734375 104.289062 50.714844 104.289062 50.714844 L 96.917969 50.714844 "/>
<path style=" stroke:none;fill-rule:nonzero;fill:rgb(15.664673%,27.082825%,54.109192%);fill-opacity:1;" d="M 0.246094 35.308594 L 0.246094 33.367188 L 6.875 33.367188 C 6.875 33.367188 8.1875 33.613281 8.1875 32.015625 C 8.1875 30.414062 7.199219 30.585938 6.835938 30.585938 L 3.007812 30.585938 C 3.007812 30.585938 0.0585938 30.792969 0.0585938 27.347656 C 0.0585938 23.882812 2.972656 23.902344 2.972656 23.902344 L 10.246094 23.902344 L 10.246094 25.917969 L 3.867188 25.917969 C 3.867188 25.917969 2.476562 25.917969 2.476562 27.234375 C 2.476562 28.546875 3.429688 28.796875 4.285156 28.796875 L 7.695312 28.796875 C 7.695312 28.796875 10.570312 28.492188 10.570312 31.898438 C 10.570312 35.328125 7.617188 35.308594 7.617188 35.308594 L 0.246094 35.308594 "/>
<path style=" stroke:none;fill-rule:nonzero;fill:rgb(15.664673%,27.082825%,54.109192%);fill-opacity:1;" d="M 76.777344 33.375 C 74.625 33.375 72.882812 31.617188 72.882812 29.4375 C 72.882812 27.289062 74.628906 25.5 76.777344 25.5 C 78.949219 25.5 80.722656 27.289062 80.722656 29.4375 C 80.722656 31.617188 78.949219 33.375 76.777344 33.375 M 76.777344 23.195312 C 73.347656 23.195312 70.539062 25.992188 70.539062 29.4375 C 70.539062 32.898438 73.347656 35.671875 76.777344 35.671875 C 80.25 35.671875 83.015625 32.890625 83.015625 29.4375 C 83.015625 25.992188 80.25 23.195312 76.777344 23.195312 "/>
<path style=" stroke:none;fill-rule:nonzero;fill:rgb(15.664673%,27.082825%,54.109192%);fill-opacity:1;" d="M 49.082031 30.347656 L 50.988281 25.675781 L 52.875 30.335938 Z M 52.246094 23.902344 L 49.726562 23.902344 L 44.296875 35.308594 L 46.972656 35.308594 L 48.417969 32.027344 L 53.589844 32.027344 L 55.019531 35.308594 L 57.6875 35.308594 "/>
<path style=" stroke:none;fill-rule:nonzero;fill:rgb(15.664673%,27.082825%,54.109192%);fill-opacity:1;" d="M 26.78125 45.757812 L 28.6875 41.074219 L 30.574219 45.746094 Z M 29.945312 39.289062 L 27.425781 39.289062 L 21.996094 50.734375 L 24.671875 50.734375 L 26.117188 47.445312 L 31.289062 47.445312 L 32.71875 50.734375 L 35.386719 50.734375 "/>
<path style=" stroke:none;fill-rule:nonzero;fill:rgb(15.664673%,27.082825%,54.109192%);fill-opacity:1;" d="M 65.421875 29.585938 L 61.601562 29.585938 L 61.601562 26 L 65.421875 26 C 66.28125 26 66.867188 26.949219 66.867188 27.804688 C 66.867188 28.6875 66.28125 29.585938 65.421875 29.585938 M 65.507812 23.902344 L 59.171875 23.902344 L 59.171875 35.308594 L 61.601562 35.308594 L 61.601562 29.769531 L 63.007812 31.703125 L 65.507812 31.703125 C 67.699219 31.703125 69.167969 29.878906 69.167969 27.800781 C 69.167969 25.730469 67.699219 23.902344 65.507812 23.902344 "/>
</g>
</svg>

<svg xmlns="http://www.w3.org/2000/svg" width="214.467" height="59pt" viewBox="0 0 160.85 59"><defs><clipPath id="a"><path d="M118 0h42.852v59H118Zm0 0"/></clipPath></defs><path d="M0 55.55h111.352L109.145 59H0zM131.637 53.992h-4.098l8.266-13.047s1.238-2.703-.38-5.558L123.903 16.3s-1.007-1.77 0-3.465l3.41-5.106 13.524 22.094s3.484 4.63-.309 10.36z" style="stroke:none;fill-rule:nonzero;fill:#f9a91d;fill-opacity:1"/><g clip-path="url(#a)"><path d="m141.52 49.992 5.027-7.656s1.469-3.16 5.258-3.16h5.332l3.715 5.863s-2.938-.305-4.25 1.793l-5.485 8.262s-1.789 3.867-6.57 3.867h-25.824l9.828-15.082s1.39-1.774-.555-4.703l-8.738-14.055s-2.153-2.078.074-5.637l2.555-3.867 12.148 19.692s2.153 2.703 0 5.941l-9.125 14.227h19.238s2.172.398 4.036-2.38l4.78-7.35s1.087-2.477 3.485-3.485h-3.863s-2.02.074-3.563 2.472l-4.246 6.57s-1.543 2.782-4.953 2.782h-6.722l8.113-12.59s4.418-5.805 1.312-11.14L129.082 8.112s-1.008-1.922.152-3.715L132.168 0l15.312 24.664s2.247 3.691 2.247 6.55c0 2.856-1.79 6.095-2.782 7.731l-6.742 10.512s-.762 1.012-.226 1.39c.55.383 1.085-.304 1.543-.855" style="stroke:none;fill-rule:nonzero;fill:#f9a91d;fill-opacity:1"/></g><path d="M56.066 39.29h2.383v9.425h5.809v2.02h-8.192zM66.086 50.734h2.36V39.29h-2.36zM37.098 50.734h2.343V39.29h-2.343zM85.34 39.29h8.969v1.886h-6.59v2.797h5.597v2.078H87.72v2.781h6.59v1.902h-8.97zM97.965 23.902h8.969v1.883h-6.586v2.781h5.617v2.079h-5.617v2.777h6.586v1.887h-8.97zM43.078 50.734V39.29h6.8s3.274.059 3.274 3.332c0 0 .305 2.723-2.476 3.828l3.449 4.285h-2.934l-4.761-5.941h2.476s1.77-.04 1.77-1.828c0-1.695-1.426-1.828-1.864-1.828h-3.351v9.597zM84.918 35.309V23.902h6.8s3.274.055 3.274 3.332c0 0 .29 2.703-2.472 3.809l3.445 4.266H93.03l-4.761-5.903h2.476s1.774-.039 1.774-1.828c0-1.715-1.43-1.832-1.868-1.832h-3.351v9.563zM37.27 33.328h3.218V28.09h2.285v7.219h-6c-.894 0-5.218-1.008-5.253-5.563-.04-4.512 3.902-5.844 5.425-5.844h5.887v2.016H37.52s-3.563 0-3.563 3.754c0 2.914 2.95 3.656 3.313 3.656M71.55 39.29h2.4v1.769l1.503-1.77h2.84s3.883-.21 3.883 3.941v7.504h-2.418v-7.867s-.074-1.558-1.715-1.558h-4.094v9.425h-2.398zM18.723 23.902h2.379v1.75l1.503-1.75h2.84s3.903-.21 3.903 3.942v7.465H26.93V27.48s-.098-1.562-1.735-1.562h-4.093v9.39h-2.38zM13.086 35.309h2.34V23.902h-2.34zM96.918 50.715v-1.942h6.629s1.312.247 1.312-1.351c0-1.602-.992-1.43-1.351-1.43H99.68s-2.953.211-2.953-3.258c0-3.445 2.914-3.445 2.914-3.445h7.273v2.02h-6.379s-1.39 0-1.39 1.312c0 1.316.933 1.563 1.808 1.563h3.41s2.875-.305 2.875 3.12c0 3.43-2.949 3.41-2.949 3.41zM.246 35.309v-1.942h6.629s1.313.246 1.313-1.351c0-1.602-.989-1.43-1.352-1.43H3.008s-2.95.207-2.95-3.238c0-3.465 2.915-3.446 2.915-3.446h7.273v2.016H3.867s-1.39 0-1.39 1.316c0 1.313.953 1.563 1.808 1.563h3.41s2.875-.305 2.875 3.101c0 3.43-2.953 3.41-2.953 3.41zM76.777 33.375c-2.152 0-3.894-1.758-3.894-3.937 0-2.149 1.746-3.938 3.894-3.938 2.172 0 3.946 1.79 3.946 3.938a3.943 3.943 0 0 1-3.946 3.937m0-10.18c-3.43 0-6.238 2.797-6.238 6.243a6.235 6.235 0 0 0 6.238 6.234 6.213 6.213 0 0 0 6.239-6.234 6.224 6.224 0 0 0-6.239-6.243M49.082 30.348l1.906-4.672 1.887 4.66Zm3.164-6.446h-2.52l-5.43 11.407h2.677l1.445-3.282h5.172l1.43 3.282h2.667M26.781 45.758l1.907-4.684 1.886 4.672Zm3.164-6.469h-2.52l-5.429 11.445h2.676l1.445-3.289h5.172l1.43 3.29h2.668M65.422 29.586h-3.82V26h3.82c.86 0 1.445.95 1.445 1.805 0 .883-.586 1.78-1.445 1.78m.086-5.683h-6.336V35.31h2.43v-5.54l1.406 1.934h2.5c2.191 0 3.66-1.824 3.66-3.902 0-2.07-1.469-3.899-3.66-3.899" style="stroke:none;fill-rule:nonzero;fill:#28458a;fill-opacity:1"/></svg>
